X: 567
T: Davy’s Brae
B: good tune book
B: tunes
M:6/8
R: jig
Q: 3/8=100
K:Dmajor
V:1 
|:FAA dAA|Bcd AGF|Eee e2d|cAA A2G|
 FAA dAA|Bcd AGF|EFG ABc|1 dDD D2A:|2 d2d d2c||
 |:Bcd F2F|Bcd F2F|Bcd e2d|cAA ABc|
 d2d ABc|dcB AGF|EFG ABc|1 ddd d2c:|2 dDD D2A||
% abcbook-tune_id 63dce2b403a421273d08270a
% abcbook-tune_composer_id 
% abcbook-link-0 https://www.youtube.com/watch?v=-XRQKYTMpfc
% abcbook-link-title-0 Jigs: Davy&#39;s Brae / Tam&#39;s Hunting Horn / The 19th Hole / Donald Ian Rankine
% abcbook-link-end-at-0 66
% abcbook-boost 7
% abcbook-difficulty 0
% abcbook-tags good tune book
% abcbook-tablature 
% abcbook-transpose 
% abcbook-tuning 
% abcbook-lastupdated 1675472628627
% abcbook-soundfonts 
% abcbook-repeats 1


